X:144
T:The Crow Behind the Plow
C:Terence "Cuz" Teahan?
B:Terry "Cuz" Teahan "Sliabh Luachra on Parade" 1980
Z:Patrick Cavanagh
M:4/4
L:1/8
R:Hornpipe
K:D
DE |: FECE DEFA | BFAF E2FA | B/c/d AF GFCE | B/c/d AF E/F/E DE | 
FECE DEFA | BFAF E2FA | B/c/d ed BedB | AGED EAA2 :| 
| dBgB dBAG | gabg aged | BGGG DGGG | B/c/d BG AGED | 
dBgB dBAG | gabg aged | BG G/G/G DG G/G/G | BdBG AGED :|| 

